X: 3
T: Tralee Gaol
R: polka
M: 2/4
L: 1/8
K: Ador
|: B/d/ |eA AB/d/ | ed Bd | eA AB/A/ | G>A Bd |
eA AB/d/ | BA/B/ dB | BG/B/ dB | A2- A :|
|: B/d/ |ef/g/ a>b | ag ed | Bc/d/ e>f | ga fg |
ea a>b | ag ed | BA/B/ d>B | A2- A :|


Tune 1113	Setting 14367

